images/plugins/scroll-effects/zoom-out-right.svg

<svg width="24" height="24" xmlns="http://www.w3.org/2000/svg">
  <g fill-rule="nonzero" fill="none">
    <path d="M1.27757664.01507897C.61648138.01271829.07993374.54912307.08243686 1.21021834v4.76423829c.00238974.65748812.53765166 1.1883929 1.19513978 1.18582148.65476194-.00119048 1.18559529-.53105955 1.18815481-1.18582148V4.0678256l7.85666695 7.8543575-7.85666695 7.8566789v-1.8880239c-.00238095-.654762-.53339287-1.1845477-1.18815481-1.1858215-.65748812-.002381-1.19255957.5283333-1.19513978 1.1858215v4.7619049c.00119926.6583691.53677071 1.1906667 1.19513978 1.1881727h4.76422639c.65476193-.0023988 1.18455957-.5334107 1.18583338-1.1881727-.00238095-.6538571-.53197621-1.1832738-1.18583338-1.1858215H4.14448152l7.86133368-7.863655 7.8659765 7.863655h-1.9135953c-.6538572.002381-1.1832858.5319644-1.1858334 1.1858215.0011905.654762.5310714 1.1856072 1.1858334 1.1881727h4.7619049c.6592739.0035536 1.1961072-.5288869 1.1974603-1.1881727v-4.7619049c-.0023888-.6583929-.5390674-1.1896787-1.1974603-1.1858215-.6538571.0023809-1.1832857.5319643-1.1858334 1.1858215v1.8810477L13.68922 11.9221831l7.8450479-7.84738131v1.89965484c.002381.65385717.5319763 1.18327386 1.1858334 1.18582148.6583929.00357142 1.1948929-.5274286 1.1974603-1.18582148V1.21021834c.0023731-.66200003-.5354602-1.19894053-1.1974603-1.19513937h-4.7619049c-.6574881.00240122-1.1884048.53765125-1.1858334 1.19513937.0011905.65476193.5310714 1.18560719 1.1858334 1.18815481h1.888012l-7.8403932 7.84040505-7.83575034-7.84040505h1.87173817c.65476193-.00238095 1.18455957-.53339288 1.18583338-1.18815481C7.23001736.55273022 6.69929115.01765877 6.04180303.01507897H1.27757664z" fill="#5C606B"/>
    <path d="M23.98497252 1.2775847c.00230113-.66109527-.53410365-1.19764291-1.19519891-1.19528024H18.0255353c-.6574881.00253019-1.1883929.53779212-1.1858215 1.19528024.0011905.65476193.5310596 1.18559529 1.1858215 1.18815481h1.90663105L12.0778089 10.3224065l-1.6810834 1.6834167 1.6810834 1.6834049 7.84738125 7.8450479H18.0255353c-.6538572.002381-1.1832738.5319762-1.1858215 1.1858334-.0035714.6583929.5274286 1.1948929 1.1858215 1.1975866h4.76423831c.66200002.0022468 1.19894052-.5355866 1.19519891-1.1975866v-4.761905c-.00246077-.6574881-.53771079-1.1884048-1.19519891-1.1858334-.65476194.0011905-1.1856072.5310715-1.18815482 1.1858334v1.888012l-7.84040509-7.8403932 7.84040509-7.83575029V6.0418111c.00238096.6547619.53339288 1.1845596 1.18815482 1.1858334.65748812.0023809 1.19255957-.5283453 1.19519891-1.1858334V1.2775847z" fill="#BDBFC3" opacity=".8"/>
  </g>
</svg>

<?xml version="1.0" encoding="UTF-8"?>
<svg width="24px" height="24px" viewBox="0 0 24 24" version="1.1" xmlns="http://www.w3.org/2000/svg" xmlns:xlink="http://www.w3.org/1999/xlink">
    <title>569C07BF-AFC0-4997-BF8F-7C71B9BDCE1C</title>
    <g id="Themes" stroke="none" stroke-width="1" fill="none" fill-rule="evenodd">
        <g id="Animation_plugin" transform="translate(-1220.000000, -913.000000)" fill-rule="nonzero">
            <g id="Group-19" transform="translate(1220.000000, 913.000000)">
                <g id="noun_Full-Screen_3542551-Copy-2" fill="#5C606B">
                    <path d="M1.27757664,0.0150789698 C0.616481379,0.0127182895 0.079933738,0.549123073 0.0824368589,1.21021834 L0.0824368589,5.97445663 C0.0848265953,6.63194475 0.620088522,7.16284953 1.27757664,7.16027811 C1.93233858,7.15908763 2.46317193,6.62921856 2.46573145,5.97445663 L2.46573145,4.0678256 L10.3223984,11.9221831 L2.46573145,19.778862 L2.46573145,17.8908381 C2.4633505,17.2360761 1.93233858,16.7062904 1.27757664,16.7050166 C0.620088522,16.7026356 0.0850170715,17.2333499 0.0824368589,17.8908381 L0.0824368589,22.652743 C0.0836361191,23.3111121 0.61920757,23.8434097 1.27757664,23.8409157 L6.04180303,23.8409157 C6.69656496,23.8385169 7.2263626,23.307505 7.22763641,22.652743 C7.22525546,21.9988859 6.6956602,21.4694692 6.04180303,21.4669215 L4.14448152,21.4669215 L12.0058152,13.6032665 L19.8717917,21.4669215 L17.9581964,21.4669215 C17.3043392,21.4693025 16.7749106,21.9988859 16.772363,22.652743 C16.7735535,23.307505 17.3034344,23.8383502 17.9581964,23.8409157 L22.7201013,23.8409157 C23.3793752,23.8444693 23.9162085,23.3120288 23.9175616,22.652743 L23.9175616,17.8908381 C23.9151728,17.2324452 23.3784942,16.7011594 22.7201013,16.7050166 C22.0662442,16.7073975 21.5368156,17.2369809 21.5342679,17.8908381 L21.5342679,19.7718858 L13.68922,11.9221831 L21.5342679,4.07480179 L21.5342679,5.97445663 C21.5366489,6.6283138 22.0662442,7.15773049 22.7201013,7.16027811 C23.3784942,7.16384953 23.9149942,6.63284951 23.9175616,5.97445663 L23.9175616,1.21021834 C23.9199347,0.548218311 23.3821014,0.0112778133 22.7201013,0.0150789698 L17.9581964,0.0150789698 C17.3007083,0.0174801945 16.7697916,0.552730216 16.772363,1.21021834 C16.7735535,1.86498027 17.3034344,2.39582553 17.9581964,2.39837315 L19.8462084,2.39837315 L12.0058152,10.2387782 L4.17006486,2.39837315 L6.04180303,2.39837315 C6.69656496,2.3959922 7.2263626,1.86498027 7.22763641,1.21021834 C7.23001736,0.552730216 6.69929115,0.0176587659 6.04180303,0.0150789698 L1.27757664,0.0150789698 Z" id="Path"></path>
                </g>
                <path d="M6.4684337,5.20587648 C5.80733843,5.20357535 5.27079079,5.73998013 5.27315346,6.40107539 L5.27315346,11.1653137 C5.27568365,11.8228018 5.81094558,12.3537066 6.4684337,12.3511352 C7.12319563,12.3499447 7.65402899,11.8200756 7.65658851,11.1653137 L7.65658851,9.25868265 L15.5132555,17.1130401 L17.1966722,18.7941235 L18.8800771,17.1130401 L26.725125,9.26565885 L26.725125,11.1653137 C26.727506,11.8191709 27.2571012,12.3485875 27.9109584,12.3511352 C28.5693513,12.3547066 29.1058513,11.8237066 29.108545,11.1653137 L29.108545,6.40107539 C29.1107918,5.73907537 28.5729584,5.20213487 27.9109584,5.20587648 L23.1490534,5.20587648 C22.4915653,5.20833725 21.9606486,5.74358727 21.96322,6.40107539 C21.9644105,7.05583733 22.4942915,7.58668259 23.1490534,7.58923021 L25.0370654,7.58923021 L17.1966722,15.4296353 L9.36092191,7.58923021 L11.2326601,7.58923021 C11.887422,7.58684925 12.4172197,7.05583733 12.4184935,6.40107539 C12.4208744,5.74358727 11.8901482,5.20851582 11.2326601,5.20587648 L6.4684337,5.20587648 Z" id="Path-Copy-13" fill="#BDBFC3" opacity="0.8" transform="translate(17.190849, 12.000000) rotate(-270.000000) translate(-17.190849, -12.000000) "></path>
            </g>
        </g>
    </g>
</svg>
